assets/icons/headset.svg

<?xml version="1.0" encoding="UTF-8" standalone="no"?>
<svg viewBox="0 0 24 24" height="24" width="24" version="1.1" id="svg4" sodipodi:docname="headset.svg" inkscape:version="1.1 (ce6663b3b7, 2021-05-25)"
   xmlns:inkscape="http://www.inkscape.org/namespaces/inkscape"
   xmlns:sodipodi="http://sodipodi.sourceforge.net/DTD/sodipodi-0.dtd"
   xmlns="http://www.w3.org/2000/svg"
   xmlns:svg="http://www.w3.org/2000/svg">
   <defs id="defs8" />
   <sodipodi:namedview id="namedview6" pagecolor="#ffffff" bordercolor="#666666" borderopacity="1.0" inkscape:pageshadow="2" inkscape:pageopacity="0.0" inkscape:pagecheckerboard="0" showgrid="true" inkscape:snap-page="true" inkscape:zoom="19.776741" inkscape:cx="19.239772" inkscape:cy="21.161221" inkscape:window-width="1920" inkscape:window-height="1016" inkscape:window-x="0" inkscape:window-y="27" inkscape:window-maximized="1" inkscape:current-layer="svg4" inkscape:snap-grids="true">
      <inkscape:grid type="xygrid" id="grid6" />
      <inkscape:grid type="xygrid" id="grid823" dotted="true" spacingx="0.25" spacingy="0.25" empspacing="20" />
   </sodipodi:namedview>
   <path id="path858" style="color:#000000;fill:#808080;stroke-linecap:square;-inkscape-stroke:none;fill-opacity:1" d="M 12 2 C 10.19643 2 8.6361565 2.2875453 7.3671875 2.9199219 C 6.0982185 3.5522984 5.1302624 4.5436697 4.5703125 5.8671875 C 3.4504128 8.5142232 3.8887191 12.379712 6.0371094 17.6875 L 6.2246094 18.150391 L 8.6386719 17.503906 C 9.1737948 17.36052 9.4890889 16.81442 9.3457031 16.279297 L 8.1816406 11.931641 C 8.0561781 11.463408 7.623207 11.163029 7.1582031 11.191406 C 7.091774 11.19546 7.0239216 11.206686 6.9570312 11.224609 L 5.2441406 11.683594 C 4.8217762 9.3693353 4.9377951 7.5681947 5.4921875 6.2578125 C 5.9634866 5.1438328 6.7299088 4.3539504 7.8125 3.8144531 C 8.8950912 3.2749559 10.303573 3 12 3 C 13.696427 3 15.104909 3.2749559 16.1875 3.8144531 C 17.270091 4.3539504 18.036513 5.1438328 18.507812 6.2578125 C 19.062205 7.5681947 19.178224 9.3693353 18.755859 11.683594 L 17.042969 11.224609 C 16.976079 11.206689 16.908227 11.195506 16.841797 11.191406 C 16.376793 11.163029 15.943821 11.463408 15.818359 11.931641 L 14.654297 16.279297 C 14.510912 16.81442 14.826205 17.36052 15.361328 17.503906 L 16.839844 17.900391 L 16.138672 20 L 13 20 L 13 18.5 L 13 18 L 12 18 L 11 18 L 11 18.5 L 11 20.5 A 0.50005 0.50005 0 0 0 11.5 21 L 16.5 21 A 0.50005 0.50005 0 0 0 16.974609 20.658203 L 17.974609 17.658203 L 17.976562 17.654297 C 20.113077 12.36399 20.547196 8.5085703 19.429688 5.8671875 C 18.869739 4.5436697 17.901781 3.5522984 16.632812 2.9199219 C 15.363844 2.2875453 13.80357 2 12 2 z " />
</svg>

<svg height="24" width="24" xmlns="http://www.w3.org/2000/svg"><path style="color:#000;fill:gray;stroke-linecap:square;-inkscape-stroke:none;fill-opacity:1" d="M12 2c-1.804 0-3.364.288-4.633.92-1.269.632-2.237 1.624-2.797 2.947-1.12 2.647-.681 6.513 1.467 11.82l.188.463 2.414-.646a.998.998 0 0 0 .707-1.225l-1.164-4.347a.997.997 0 0 0-1.225-.707l-1.713.459c-.422-2.315-.306-4.116.248-5.426.471-1.114 1.238-1.904 2.32-2.444C8.896 3.275 10.305 3 12 3c1.696 0 3.105.275 4.188.814 1.082.54 1.849 1.33 2.32 2.444.554 1.31.67 3.111.248 5.426l-1.713-.46a.997.997 0 0 0-1.225.707l-1.164 4.348a.998.998 0 0 0 .707 1.225l1.479.396-.701 2.1H13v-2h-2v2.5a.5.5 0 0 0 .5.5h5a.5.5 0 0 0 .475-.342l1-3 .002-.004c2.136-5.29 2.57-9.145 1.453-11.787-.56-1.323-1.528-2.315-2.797-2.947C15.363 2.288 13.803 2 12 2z"/></svg>
